X: 22993
T: Lassie With The Yellow Petticoat, The
R: reel
M: 4/4
K: Dmajor
~D3 F A2 d2|BA d2 BA d2|1 ~D3 F A2 d2|BAdB AF E2:|2 ~D3 F ABdB|BAdB AF E2||
FAAB dABA|AdA=c BAdA|FAAB dABA|1 AdFB AF E2:|2 DAdB AF E2||

